Hatter-kde/actions/22/distribute-vertical-baseline.svg

<svg xmlns="http://www.w3.org/2000/svg" viewBox="0 0 22 22">
  <defs id="defs3051">
    <style type="text/css" id="current-color-scheme">
      .ColorScheme-Text {
        color:#363636;
      }
      </style>
  </defs>
 <path 
    style="fill:currentColor;fill-opacity:1;stroke:none" 
    d="M 13.03125 3 C 13.03125 4.8985 14.372349 6.4706469 15.380859 7.4355469 C 14.182069 8.6532469 12.70385 9.2019156 10 9.6660156 L 10.277344 11 C 16.304714 9.9656 19 6.1755 19 3 L 17.523438 3 C 17.523438 3.9235 17.056963 5.7059781 16.257812 6.3925781 C 15.442022 5.6194781 14.457893 4.4243844 14.220703 3.0214844 L 13.03125 3 z M 5 7 L 3 10 L 7 10 L 5 7 z M 16.130859 11.970703 C 14.958121 11.996183 14.056899 12.186296 13.402344 12.466797 L 13.771484 13.730469 C 14.085121 13.62841 15.271336 13.271484 15.966797 13.271484 L 16.0625 13.271484 C 17.030693 13.309704 17.099609 13.640207 17.099609 14.417969 L 17.099609 14.724609 L 16.59375 14.800781 C 14.248261 15.119543 12.994141 15.387264 12.994141 17.070312 C 12.994141 18.243347 13.907718 18.970703 15.230469 18.970703 C 16.144115 18.970703 16.743788 18.613413 17.357422 18.128906 L 17.548828 18.84375 L 18.994141 18.84375 L 18.994141 14.125 C 18.994141 12.684219 17.931311 11.970703 16.294922 11.970703 L 16.130859 11.970703 z M 17.099609 15.71875 L 17.099609 17.287109 C 16.595067 17.605872 16.21315 17.835938 15.558594 17.835938 C 14.972226 17.835938 14.685547 17.490366 14.685547 17.005859 C 14.685547 16.087832 15.543731 15.935172 16.59375 15.794922 L 17.099609 15.71875 z M 3 16 L 5 19 L 7 16 L 3 16 z "
    class="ColorScheme-Text"
    />
</svg>

<?xml version="1.0" encoding="UTF-8"?>
<svg viewBox="0 0 22 22" xmlns="http://www.w3.org/2000/svg">
 <defs id="defs3051">
  <style id="current-color-scheme" type="text/css">.ColorScheme-Text {
        color:#363636;
      }</style>
 </defs>
 <path class="ColorScheme-Text" d="m13.031 3c0 1.8985 1.3411 3.4706 2.3496 4.4355-1.1988 1.2177-2.677 1.7664-5.3809 2.2305l0.27734 1.334c6.0274-1.0344 8.7227-4.8245 8.7227-8h-1.4766c0 0.9235-0.46648 2.706-1.2656 3.3926-0.81579-0.7731-1.7999-1.9682-2.0371-3.3711l-1.1895-0.021484zm-8.0312 4-2 3h4l-2-3zm11.131 4.9707c-1.1727 0.02548-2.074 0.21559-2.7285 0.49609l0.36914 1.2637c0.31364-0.10206 1.4999-0.45898 2.1953-0.45898h0.095703c0.96819 0.03822 1.0371 0.36872 1.0371 1.1465v0.30664l-0.50586 0.076172c-2.3455 0.31876-3.5996 0.58648-3.5996 2.2695 0 1.173 0.91358 1.9004 2.2363 1.9004 0.91365 0 1.5133-0.35729 2.127-0.8418l0.19141 0.71484h1.4453v-4.7188c0-1.4408-1.0628-2.1543-2.6992-2.1543h-0.16406zm0.96875 3.748v1.5684c-0.50454 0.31876-0.88646 0.54883-1.541 0.54883-0.58637 0-0.87305-0.34557-0.87305-0.83008 0-0.91803 0.85818-1.0707 1.9082-1.2109l0.50586-0.076172zm-14.1 0.28125 2 3 2-3h-4z" fill="currentColor"/>
</svg>
